X:1
T:James Gibb editions
T:Heiligste Nacht - Haydn M
T:#
%%score [ 1 2 3 4 ]
L:1/8
Q:1/4=96
M:3/4
K:G
V:1 treble nm="Soprano" snm="S"
V:2 treble nm="Alto" snm="A"
V:3 treble-8 nm="Tenor" snm="T"
V:4 bass nm="Bass" snm="B"
V:1
"^Heiligste Nacht, MH461""^Johann Michael Haydn\n(1737-1806)" d2 (dB) (cA) | B4 z2 | B2 (BG) (AF) | %3
w: Hei- lig\- * ste *|Nacht!|Hei- lig\- * ste *|
w: Gött- li\- * ches *|Kind!|Gött- li\- * ches *|
 G4 z2 | G2 A2 B2 | (B>c) A2 A2 | A2 B2 c2 | (c>d) B2 z2 | d2 B2 c2 | d2 B2 c2 | (dB) (dB) (ec) | %11
w: Nacht!|Fin- ster- nis|wei\- * chet, es|glän- zet hie-|nie\- * den.|Har- fen ver-|brei- ten den|süs\- * se\- * sten *|
w: Kind!|Nacht ist ver|gan\- * gen, nun|strahlt uns ein|Mor\- * gen.|Gott hat sich|un- ser in|Lie\- * be * er\- *|
 (B2 A2) z2 | G2 A2 B2 | (B>c) A2 A2 | A2 B2 c2 | (c>d) B2 z2 | B2 B2 ^c2 | d2 A2 B2 | %18
w: Klang. *|En- gel er-|schei\- * nen, ver-|kün- den den|Frie\- * den,|lieb- lich er-|tö- net ihr|
w: barmt. *|Wir sind in|Gna\- * de und|Gü- te ge-|bor\- * gen,|Gott hat die|Welt, hat die|
 (AF) (AF) (GE) | (E2 D2) z2 | D2 F2 G2 | A2 B2 c2 | (Bd) (dB) (ec) | (B2 A2) z2 | D2 F2 G2 | %25
w: fro\- * her * Ge\- *|sang. *|Chri- sten, er-|wa- chet und|kom\- * met * ge\- *|schwind, *|fol- get den|
w: Men\- * schen * um\- *|armt. *|Geht nun zur|Krip- pe und|se\- * het * das *|Kind, *|se- het die|
 A2 B2 c2 | (Bd) (dB) (ec) | (B2 A2) z2 | G2 A2 B2 | (dc) (Ac) B2 | G2 A2 B2 | (dc) (Ac) B2 | %32
w: Hir- ten, die|eif\- * ri\- * ger *|sind, *|ei- let nach|Beth\- * le\- * hem,|seht eu- er|Di\- * a\- * dem,|
w: Hir- ten, wie|freud\- * voll * sie *|sind. *|Ju- belt und|singt * dem * Herrn,|den Welt und|Him\- * mel * ehrn.|
 d2 (dB) (cA) | (A2 G2) z2 |] %34
w: hier liegt * das *|Kind. *|
w: Hal- le\- * lu\- *|ja! *|
V:2
 G2 G2 D2 | D4 z2 | G2 G2 D2 | D4 z2 | G2 F2 G2 | (G>A) F2 F2 | F2 G2 A2 | (A>B) G2 z2 | G2 G2 G2 | %9
w: Hei- lig- ste|Nacht!|Hei- lig- ste|Nacht!|Fin- ster- nis|wei\- * chet, es|glän- zet hie-|nie\- * den.|Har- fen ver-|
w: Gött- li- ches|Kind!|Gött- li- ches|Kind!|Nacht ist ver|gan\- * gen, nun|strahlt uns ein|Mor\- * gen.|Gott hat sich|
 G2 G2 G2 | G2 G2 (EA) | (G2 F2) z2 | G2 F2 G2 | (G>A) F2 F2 | F2 G2 A2 | (A>B) G2 z2 | G2 G2 G2 | %17
w: brei- ten den|süs- se- sten *|Klang. *|En- gel er-|schei\- * nen, ver-|kün- den den|Frie\- * den,|lieb- lich er-|
w: un- ser in|Lie- be er\- *|barmt. *|Wir sind in|Gna\- * de und|Gü- te ge-|bor\- * gen,|Gott hat die|
 F2 F2 G2 | (FD) (FD) E^C | (^C2 D2) z2 | D2 F2 G2 | D2 D2 A2 | (GB) (BG) (cA) | (G2 F2) z2 | %24
w: tö- net ihr|fro\- * her * Ge\- *|sang. *|Chri- sten, er-|wa- chet und|kom\- * met * ge\- *|schwind, *|
w: Welt, hat die|Men\- * schen * um\- *|armt. *|Geht nun zur|Krip- pe und|se\- * het * das *|Kind, *|
 D2 D2 D2 | D2 D2 D2 | G2 G2 (EA) | (G2 F2) z2 | D2 D2 D2 | (BA) (FA) G2 | D2 D2 D2 | %31
w: fol- get den|Hir- ten, die|eif- ri- ger *|sind, *|ei- let nach|Beth\- * le\- * hem,|seht eu- er|
w: se- het die|Hir- ten, wie|freud- voll sie *|sind. *|Ju- belt und|singt * dem * Herrn,|den Welt und|
 (BA) (FA) G2 | G2 G2 F2 | (F2 G2) z2 |] %34
w: Di\- * a\- * dem,|hier liegt das|Kind. *|
w: Him\- * mel * ehrn.|Hal- le- lu-|ja! *|
V:3
 B2 (BG) (AF) | G4 z2 | d2 (dB) (cA) | B4 z2 | d2 d2 d2 | d2 d2 d2 | d2 d2 d2 | d2 d2 z2 | %8
w: Hei- lig\- * ste *|Nacht!|Hei- lig\- * ste *|Nacht!|Fin- ster- nis|wei- chet, es|glän- zet hie-|nie- den.|
w: Gött- li\- * ches *|Kind!|Gött- li\- * ches *|Kind!|Nacht ist ver|gan- gen, nun|strahlt uns ein|Mor- gen.|
 B2 G2 A2 | B2 G2 A2 | (BG) (BG) c2 | d4 z2 | d2 d2 d2 | d2 d2 d2 | d2 d2 d2 | d2 d2 z2 | %16
w: Har- fen ver-|brei- ten den|süs\- * se\- * sten|Klang.|En- gel er-|schei- nen, ver-|kün- den den|Frie- den,|
w: Gott hat sich|un- ser in|Lie\- * be * er-|barmt.|Wir sind in|Gna- de und|Gü- te ge-|bor- gen,|
 G2 G2 G2 | A2 A2 d2 | A2 A2 A2 | (G2 F2) z2 | d2 d2 d2 | f2 g2 d2 | d2 d2 (ce) | d4 z2 | %24
w: lieb- lich er-|tö- net ihr|fro- her Ge-|sang. *|Chri- sten, er-|wa- chet und|kom- met ge\- *|schwind,|
w: Gott hat die|Welt, hat die|Men- schen um-|armt. *|Geht nun zur|Krip- pe und|se- het das *|Kind,|
 F2 A2 G2 | F2 G2 A2 | (GB) (BG) (ce) | d4 z2 | g2 f2 g2 | d3 d d2 | g2 f2 g2 | d3 d d2 | B2 d3 c | %33
w: fol- get den|Hir- ten, die|eif\- * ri\- * ger *|sind,|ei- let nach|Beth- le- hem,|seht eu- er|Di- a- dem,|hier liegt das|
w: se- het die|Hir- ten, wie|freud\- * voll * sie *|sind.|Ju- belt und|singt dem Herrn,|den Welt und|Him- mel ehrn.|Hal- le- lu-|
 (c2 B2) z2 |] %34
w: Kind. *|
w: ja! *|
V:4
 G,,2 B,,2 D,2 | G,4 z2 | G,,2 B,,2 D,2 | G,4 z2 | B,2 A,2 G,2 | D,2 D,2 D,2 | F,2 E,2 D,2 | %7
w: Hei- lig- ste|Nacht!|Hei- lig- ste|Nacht!|Fin- ster- nis|wei- chet, es|glän- zet hie-|
w: Gött- li- ches|Kind!|Gött- li- ches|Kind!|Nacht ist ver-|gan- gen, nun|strahlt uns ein|
 G,2 G,2 z2 | z6 | z6 | z6 | z6 | B,2 A,2 G,2 | D,2 D,2 D,2 | F,2 E,2 D,2 | G,2 G,2 z2 | %16
w: nie- den.|||||En- gel er-|schei- nen, ver-|kün- den den|Frie- den,|
w: Mor- gen.|||||Wir sind in|Gna- de und|Gü- te ge-|bor- gen,|
 G,2 G,2 E,2 | D,2 D,2 G,,2 | A,,2 A,,2 A,,2 | D,4 z2 | D2 =C2 B,2 | A,2 G,2 F,2 | G,2 G,2 C,2 | %23
w: lieb- lich er-|tö- net ihr|fro- her Ge-|sang.|Chri- sten, er-|wa- chet und|kom- met ge-|
w: Gott hat die|Welt, hat die|Men- schen um-|armt.|Geht nun zur|Krip- pe und|se- het das|
 D,4 z2 | D,2 C,2 B,,2 | A,,2 G,,2 F,,2 | G,,2 G,2 C,2 | D,4 z2 | B,2 A,2 G,2 | F,3 F, G,2 | %30
w: schwind,|fol- get den|Hir- ten, die|eif- ri- ger|sind,|ei- let nach|Beth- le- hem,|
w: Kind,|se- het die|Hir- ten, wie|freud- voll sie|sind.|Ju- belt und|singt dem Herrn,|
 B,2 A,2 G,2 | F,3 F, G,2 | G,,2 B,,2 D,2 | (D,2 G,2) z2 |] %34
w: seht eu- er|Di- a- dem,|hier liegt das|Kind. *|
w: den Welt und|Him- mel ehrn.|Hal- le- lu-|ja! *|

